public/icon/16/folder.svg

<svg viewBox="0 0 16 16">
  <g class="folder">
    <path d="M15 6H1V3c0-.55.45-1 1-1h5l.67 1H14c.55 0 1 .45 1 1v2Z" class="fill-(--icon-fill) stroke-current stroke-2 sl-r"/>
    <path d="M1 6h14v7a1 1 0 0 1-1 1H2a1 1 0 0 1-1-1V6Z" class="fill-(--icon-fill) stroke-current stroke-2 sl-r"/>
  </g>
</svg>

<svg width="16" height="16" viewBox="0 0 16 16" fill="none" xmlns="http://www.w3.org/2000/svg">
<path d="M15 6H1V3C1 2.45 1.45 2 2 2H7L7.67 3H14C14.55 3 15 3.45 15 4V6Z" fill="white" stroke="#092E24" stroke-width="2" stroke-miterlimit="10" stroke-linecap="round"/>
<path d="M1 6H15V13C15 13.5523 14.5523 14 14 14H2C1.44772 14 1 13.5523 1 13V6Z" fill="white" stroke="#092E24" stroke-width="2" stroke-miterlimit="10" stroke-linecap="round" stroke-linejoin="round"/>
</svg>
